images/lend.svg

<svg height="250" viewBox="0 0 250 250" width="250" xmlns="http://www.w3.org/2000/svg"><path d="m125 250c-8.460938.003906-16.898438-.84375-25.1875-2.53125-15.984375-3.277344-31.171875-9.667969-44.6875-18.8125-20.105469-13.566406-35.847656-32.667969-45.3125-55-16.453125-38.921875-12.101562-83.523438 11.5625-118.53125 13.554688-20.101562 32.648438-35.839844 54.96875-45.3125 7.554688-3.195312 15.402344-5.632812 23.4375-7.28125 16.632812-3.390625 33.773438-3.390625 50.40625 0 15.984375 3.277344 31.171875 9.667969 44.6875 18.8125 20.105469 13.566406 35.847656 32.667969 45.3125 55 16.464844 38.929688 12.113281 83.546875-11.5625 118.5625-13.570312 20.09375-32.671875 35.824219-55 45.28125-7.554688 3.195312-15.402344 5.632812-23.4375 7.28125-8.289062 1.6875-16.726562 2.535156-25.1875 2.53125zm-39.6875-136.46875-15.3125 15.3125 35.8125 35.84375-35.8125 35.78125 15.3125 15.3125 51.09375-51.125zm21.75-21.71875-15.21875 15.25 51.0625 51.0625 15.21875-15.25zm57.625-57.5625-51.09375 51.09375 51.09375 51.125 15.3125-15.3125-35.8125-35.84375 35.8125-35.78125zm0 0" fill="#1e8fca"/></svg>

<svg xmlns="http://www.w3.org/2000/svg" width="250" height="250"><path fill="#1e8fca" d="M125 250a125.96 125.96 0 0 1-25.188-2.531 124.3 124.3 0 0 1-44.687-18.813 125.37 125.37 0 0 1-45.313-55A124.85 124.85 0 0 1 21.376 55.125 125.366 125.366 0 0 1 76.344 9.812a124.258 124.258 0 0 1 23.437-7.28 126.164 126.164 0 0 1 50.406 0 124.3 124.3 0 0 1 44.688 18.812 125.37 125.37 0 0 1 45.313 55 124.848 124.848 0 0 1-11.563 118.562 125.371 125.371 0 0 1-55 45.281 124.258 124.258 0 0 1-23.438 7.282A125.96 125.96 0 0 1 125 250zM85.312 113.531 70 128.844l35.813 35.844L70 200.468l15.313 15.313 51.093-51.125zm21.75-21.719-15.218 15.25 51.062 51.063 15.219-15.25zm57.626-57.562-51.094 51.094 51.094 51.125L180 121.156l-35.813-35.844L180 49.532zm0 0"/></svg>
